T: Tar Road To Sligo, The
M: 6/8
L: 1/8
K: Bmin
f2B Bcd|ecA BAG|F2A ABc|dcd efg|f2B Bcd|ecA BAG|FGA A2g|1fdc d2e:|2fdc d2B||A2f A2f|gfg efg|afd dcd|Bed cBA|1A2f A2f|gfg efg|afd bge|edc dcB:|2fdA geg|~a3 bge|~a3 bge|edc d3:|
